www/images/close.svg

<svg fill="none" height="75" viewBox="0 0 75 75" width="75" xmlns="http://www.w3.org/2000/svg"><path d="m15.3908 52.747c-.7811.7811-.7811 2.0474 0 2.8285l5.0338 5.0337c.781.7811 2.0474.7811 2.8284 0l14.747-14.747 14.7471 14.747c.781.7811 2.0473.7811 2.8284 0l5.0338-5.0337c.781-.7811.781-2.0474 0-2.8285l-14.747-14.747 14.747-14.747c.781-.7811.781-2.0474 0-2.8285l-5.0338-5.0338c-.7811-.781-2.0474-.781-2.8284 0l-14.7471 14.7471-14.747-14.7471c-.781-.781-2.0474-.781-2.8284 0l-5.0338 5.0338c-.7811.7811-.7811 2.0474 0 2.8285l14.747 14.747z" fill="#fff"/></svg>

<svg width="75" height="75" viewBox="0 0 75 75" fill="none" xmlns="http://www.w3.org/2000/svg">
<path d="M15.3908 52.747C14.6097 53.5281 14.6097 54.7944 15.3908 55.5755L20.4246 60.6092C21.2056 61.3903 22.472 61.3903 23.253 60.6092L38 45.8622L52.7471 60.6092C53.5281 61.3903 54.7944 61.3903 55.5755 60.6092L60.6093 55.5755C61.3903 54.7944 61.3903 53.5281 60.6093 52.747L45.8623 38L60.6093 23.253C61.3903 22.4719 61.3903 21.2056 60.6093 20.4245L55.5755 15.3907C54.7944 14.6097 53.5281 14.6097 52.7471 15.3907L38 30.1378L23.253 15.3907C22.472 14.6097 21.2056 14.6097 20.4246 15.3907L15.3908 20.4245C14.6097 21.2056 14.6097 22.4719 15.3908 23.253L30.1378 38L15.3908 52.747Z" fill="white"/>
</svg>
